X:081
T: Flowers of the Forest
N: O'Farrell's Pocket Companion v.1 (Sky ed. p.51)
M: C
N: "Scotch"
L: 1/8
R: march
Q: 120
K: Dmix
A2 A>B (3ABd (3efg|{g}f2 ef B>d (3BAF|EF/A/ A>B (3ABd ef/g/|\
f2 e2 {de}d4 :|
P:2
c2 c/e/d/c/ B2 (3ABd | Afe>d B>d (3BAF|c2 c/e/d/c/ B2 (3ABd|
Afe>d d4|c2 c/e/d/c/ B2 (3ABd | Afe>d B>d (3BAG|EF/A/ A>B (3ABd ef/g/|\
f2 e2 {de}d4 :|
P:3
fg/a/ a>b a2 gf|e>a (3fed B>d (3BAF|fg/a/ a>b a2 gf|e/f/g/f/ e>d d3e|
fg/a/ a>b a2 gf|ea (3fed B>d (3BAF|EF/A/ A>B (3ABd ef/g/|f2 ed/e/ d4||
